Sources/FrostedUI/Resources/Icons.xcassets/strikethrough24.imageset/strikethrough-24.svg

<svg width="24" height="24" viewBox="0 0 24 24" fill="none" xmlns="http://www.w3.org/2000/svg" data-fui-icon="true">
  <path
    d="M18.2422 14.25C18.3497 14.25 18.4498 14.3071 18.4992 14.4026C18.829 15.0395 19.0029 15.7861 19.0029 16.6543C19.0026 19.1671 16.6207 22.0585 12.0195 22.0586C9.62865 22.0586 7.98125 21.3147 6.87305 20.3438C5.77944 19.3855 5.26359 18.253 5.03613 17.5439C4.90968 17.1497 5.12635 16.7273 5.52051 16.6006C5.91492 16.4741 6.33738 16.6915 6.46387 17.0859C6.63627 17.6233 7.03282 18.488 7.8623 19.2148C8.67766 19.9292 9.96584 20.5586 12.0195 20.5586C15.9617 20.5585 17.5026 18.1789 17.5029 16.6543C17.5029 15.8976 17.3352 15.347 17.0781 14.9287C17.0663 14.9094 17.0542 14.8903 17.0418 14.8714C16.8873 14.6349 17.0365 14.25 17.319 14.25H18.2422ZM12.0195 1.93945C16.8393 1.93954 18.6583 4.8411 18.9873 6.41504C19.0718 6.82031 18.8115 7.21794 18.4062 7.30273C18.0009 7.38745 17.6034 7.12696 17.5186 6.72168C17.3263 5.80266 16.0887 3.43954 12.0195 3.43945C8.07604 3.43945 6.53223 5.82075 6.53223 7.34473C6.53233 8.10107 6.69999 8.65112 6.95703 9.06934C7.21584 9.49015 7.59657 9.82784 8.09766 10.1084C9.11788 10.6795 10.5078 10.9534 12.0673 11.2449C12.0855 11.2483 12.104 11.25 12.1225 11.25H23.25C23.6642 11.25 23.9999 11.5859 24 12C23.9999 12.3881 23.7051 12.7075 23.3271 12.7461L23.25 12.75H0.75C0.335851 12.75 6.59474e-05 12.4141 0 12C4.64704e-05 11.5858 0.335839 11.25 0.75 11.25H6.05638C6.35646 11.25 6.49353 10.8232 6.28064 10.6117C6.05599 10.3886 5.85342 10.138 5.67969 9.85547C5.25506 9.16485 5.03233 8.33308 5.03223 7.34473C5.03223 4.83119 7.4185 1.93945 12.0195 1.93945Z"
    fill="currentColor"
  />
</svg>

<svg xmlns="http://www.w3.org/2000/svg" width="24" height="24" fill="none" data-fui-icon="true" viewBox="0 0 24 24"><path fill="currentColor" d="M18.242 14.25c.108 0 .208.057.257.153.33.636.504 1.383.504 2.251 0 2.513-2.382 5.404-6.983 5.405-2.391 0-4.039-.744-5.147-1.715a6.33 6.33 0 0 1-1.837-2.8.75.75 0 1 1 1.428-.458 4.83 4.83 0 0 0 1.398 2.129c.816.714 2.104 1.344 4.158 1.344 3.942 0 5.483-2.38 5.483-3.905 0-.756-.168-1.307-.425-1.725l-.036-.058c-.155-.236-.006-.621.277-.621zM12.02 1.94c4.82 0 6.638 2.901 6.967 4.475a.75.75 0 0 1-1.468.307c-.193-.92-1.43-3.282-5.5-3.283-3.943 0-5.487 2.382-5.487 3.906 0 .756.168 1.306.425 1.724.259.421.64.759 1.14 1.04 1.02.57 2.41.844 3.97 1.136a.3.3 0 0 0 .056.005H23.25a.75.75 0 0 1 .077 1.496l-.077.004H.75a.75.75 0 0 1 0-1.5h5.306c.3 0 .438-.427.225-.638a4 4 0 0 1-.601-.757c-.425-.69-.648-1.522-.648-2.51 0-2.514 2.387-5.406 6.988-5.406"/></svg>
